X:1
T:All the Way My Savior Leads Me
T:All the Way My Savior Leads Me
T:Robert Lowry
T:Frances Jane (Fanny) Crosby, 1875
T:Public Domain Courtesy of the Cyber Hymnal™
T:Public Domain Courtesy of the Cyber Hymnal™
C:Robert Lowry
Z:Public Domain
Z:Courtesy of the Cyber Hymnal™
%%score 1 ( 2 3 )
L:1/8
Q:1/4=100
M:3/4
K:Ab
V:1 treble 
V:2 bass 
V:3 bass 
V:1
 [Ec]>[Ec] | [Ec]3 [Ec] [DB][CA] | [CE]2 [CA]2 [CA][Ec] | [EB]3 [EG] [EA][EB] | [Ec]4 [Ac][Ac] | %5
w: 1.~All the|way my Sav- ior|leads me What have|I to ask be-|side? Can I|
w: 2.~All the|way my Sav- ior|leads me Cheers each|wind- ing path I|tread, Gives me|
w: 3.~All the|way my Sav- ior|leads me O the|full- ness of His|love! Per- fect|
 [Ad]3 [Ac] [EB][EA] | [Ec]2 [EB]2 [EB][EB] | [=DB]3 [DF] [DG][DA] | [EG]4 [DF][DE] | %9
w: doubt His ten- der|me- rcy, Who through|life has been my|guide? Heav’n- ly|
w: grace for ev- ery|tri- al, Feeds me|with the liv- ing|bread. Though my|
w: rest to me is|prom- ised In my|Fa- ther’s house a-|bove. When my|
 [CA]3 [DB] [CA][DF] | [CE]2 [CA]2 [EA][EB] | [Ec]3 [CA] [Fd][Ec] | [EB]4 [Ec][Ed] | %13
w: peace, di- vin- est|com- fort, Here by|faith in Him to|dwell! For I|
w: wear- y steps may|fal- ter And my|soul a- thirst may|be, Gush- ing|
w: spir- it, clothed im-|mor- tal, Wings its|flight to realms of|day This my|
 [Ee]3 [Ec] [EB][EA] | [FB]2 [FA]2 [EG][DF] | [CE][EA] [Ac]2 [GB]2 | [Ec]4 [Ec][Ed] | %17
w: know, what- e’er be-|fall me, Je- sus|do- eth all things|well; For I|
w: from the rock be-|fore me, Lo! A|spring of joy I|see; Gush- ing|
w: song through end- less|ag- es: Je- sus|led me all the|way; This my|
 [Ee]3 [Ac] [GB][EA] | [FB]2 [FA]2 [EG][DF] | [CE][EA] [Ec]2 [EB]2 | [EA]4 |] %21
w: know, what- e’er be-|fall me, Je- sus|do- eth all things|well.|
w: from the rock be-|fore me, Lo! A|spring of joy I|see.|
w: song through end- less|ag- es: Je- sus|led me all the|way.|
V:2
 [A,,A,]>[A,,A,] | [A,,A,]3 [A,,A,] [A,,F,][A,,E,] | [A,,A,]2 [A,,E,]2 [A,,E,][A,,A,] | %3
 [E,G,]3 [D,B,] [C,A,][B,,G,] | [A,,A,]4 [A,E][A,E] | [A,F]3 [A,E] [A,D][A,C] | %6
 [E,A,]2 [E,G,]2 [E,G,][E,G,] | [B,,F,]3 [B,,A,] [B,,B,][B,,C] | [E,B,]4 [E,A,][E,G,] | %9
 [A,,A,]3 [A,,A,] [A,,A,][A,,A,] | [A,,A,]2 [A,,E,]2 [C,A,][E,G,] | A,3 A, A,A, | %12
 [E,G,]4 A,[A,B,] | [A,C]3 [A,,A,] [B,,G,][C,A,] | [D,A,]2 [D,D]2 [D,B,][D,A,] | %15
 [E,A,][E,C] [E,E]2 [E,E]2 | A,4 A,[A,B,] | [A,C]3 [A,E] [E,D][F,C] | [D,D]2 [D,D]2 [D,A,][D,A,] | %19
 [E,A,][E,C] [E,E]2 [E,D]2 | [A,C]4 |] %21
V:3
 x2 | x6 | x6 | x6 | x6 | x6 | x6 | x6 | x6 | x6 | x6 | A,3 A, A,A, | x4 A, x | x6 | x6 | x6 | %16
 A,4 A, x | x6 | x6 | x6 | x4 |] %21

